X:2044
T:Lhig dooin ardvoylley choyrt da'n Chairn
T:Er Ean bashtey 
C:Tom Cain, Douglas
O:Isle of Man
S:Traditional carol 
Z:Clague collection
B:Kiaull Vannin #44
N:Revised version given.  See also KV 46, 88, 268 and 292. See also Carvalyn Gailckagh, Moore, p.76.
L:1/4
M:3/4 
Q:160 
K:G 
E|E2 E|B2 B|A2 G|F2 F|G2 G|A2 A|(B3|B2)c| 
BA G|F2 E|A2 A|B2 E|G2 B|F2 F|E3-|E2|| 
